conjugFR/static/assets/logout.svg

<?xml version="1.0" encoding="utf-8"?>
<!-- Generator: Adobe Illustrator 24.0.0, SVG Export Plug-In . SVG Version: 6.00 Build 0)  -->
<svg version="1.1" id="Calque_1" xmlns="http://www.w3.org/2000/svg" xmlns:xlink="http://www.w3.org/1999/xlink" x="0px" y="0px"
	 viewBox="0 0 48 48" style="enable-background:new 0 0 48 48;" xml:space="preserve">
<style type="text/css">
	.st0{fill:#CDCDCD;}
</style>
<path class="st0" d="M8.9,43.3c-1.3,0-2.4-0.5-3.4-1.4c-0.9-0.9-1.4-2-1.4-3.3V9.4c0-1.3,0.5-2.4,1.4-3.4c0.9-0.9,2-1.4,3.4-1.4
	h14.9v4.8H8.9v29.1h14.9v4.7H8.9z M33.4,34.5L30,31.3l4.9-4.9H18.1v-4.7h16.6l-4.9-4.9l3.4-3.3l10.5,10.6L33.4,34.5z"/>
</svg>

<svg id="Calque_1" data-name="Calque 1" xmlns="http://www.w3.org/2000/svg" viewBox="0 0 39.6 38.7"><defs><style>.cls-1{fill:#fff;}</style></defs><title>logout</title><path class="cls-1" d="M8.9,43.3a4.94,4.94,0,0,1-3.4-1.4,4.53,4.53,0,0,1-1.4-3.3V9.4A4.94,4.94,0,0,1,5.5,6,4.6,4.6,0,0,1,8.9,4.6H23.8V9.4H8.9V38.5H23.8v4.7H8.9Zm24.5-8.8L30,31.3l4.9-4.9H18.1V21.7H34.7l-4.9-4.9,3.4-3.3L43.7,24.1Z" transform="translate(-4.1 -4.6)"/></svg>
